!!!COM: Bach, Johann Sebastian
!!!OPR: Die Kunst der Fuge
!!!XEN: The Art of Fugue
!!!OTL:
!!!OMV: 10
!!!SCT: BWV 1080
!!!SCA: Thematisch-systematisches Verzeichnis der musikalischen Werke Johann Sebastian Bach: Bach-Werke-Verzeichnis (Schmieder)
!!!YOR: Bach Gesellschaft Edition xxv,1
!!!EED: Frances Bennion
!!!ENC: Frances Bennion
!!!CDT: 1685/3//-1750/7/28/
!!!OCY: Deutschland
!!!YEC: Copyright (c) 1994, 2000 Center for Computer Assisted Research in the Humanities
!!!YEM: Rights to all derivative editions reserved.
!!!YEM: Refer to licensing agreement for further details.
!!!YEN: United States of America
**kern	**kern	**kern	**kern
*k[b-]	*k[b-]	*k[b-]	*k[b-]
*d:	*d:	*d:	*d:
*clefG	*clefG	*clefC	*clefC
*M4/4	*M4/4	*M4/4	*M4/4
=1	=1	=1	=1
1r	4r	1r	1r
.	4c#	.	.
.	4d	.	.
.	4A	.	.
=2	=2	=2	=2
1r	4r	1r	1r
.	4f	.	.
.	4e	.	.
.	4a	.	.
=3	=3	=3	=3
1r	8d	2.r	1r
.	8e	.	.
.	8f	.	.
.	8g	.	.
.	8a	.	.
.	8b-	.	.
.	[4cc	4F#	.
=4	=4	=4	=4
1r	8cc]	4G	1r
.	8b-	.	.
.	8a	4D	.
.	8g	.	.
.	8f#	4r	.
.	8d	.	.
.	[4g	4B-	.
=5	=5	=5	=5
1r	8g]	4A	1r
.	8e	.	.
.	8f#	4d	.
.	8a	.	.
.	[2b-	8G	.
.	.	8A	.
.	.	8B-	.
.	.	8c	.
=6	=6	=6	=6
1r	8b-]	8d	1r
.	8g	8e	.
.	8a	4.f	.
.	8cc#	.	.
.	[2dd	.	.
.	.	8e	.
.	.	8d	.
.	.	8c	.
=7	=7	=7	=7
1r	8dd]	8B-	4r
.	8cc	8A	.
.	8b-	2d	4F
.	8a	.	.
.	8g	.	4E
.	8f	.	.
.	4e	8c#	4A
.	.	8B	.
=8	=8	=8	=8
2.r	4.a	8c#	4r
.	.	8d	.
.	.	4.e	4C#
.	8g	.	.
.	4f	.	4D
.	.	8d	.
4cc	8e	[4e	4AA
.	8f#	.	.
=9	=9	=9	=9
4b	4g#	2.e]	8E
.	.	.	8D
4ee	8a	.	8C
.	8b	.	8BB
4r	4cc	.	8AA
.	.	.	8GG
4g#	4b	4d	[4FF
=10	=10	=10	=10
4a	2a	2c	8FF]
.	.	.	8GG
4e	.	.	8AA
.	.	.	8BB
8a	2r	8r	4C
8g	.	8E	.
8f	.	[4A	4AA
8e	.	.	.
=11	=11	=11	=11
8d	1r	4A]	4BB
8c	.	.	.
4.B	.	8G	4.E
.	.	8F#	.
.	.	2G	.
8c#	.	.	8AA
8d	.	.	8BB
8e	.	.	8C#
=12	=12	=12	=12
8f	1r	8F	2D
8e	.	8G	.
8f	.	8A	.
8d	.	8B	.
8e	.	2c	8C
8f#	.	.	8D
8g	.	.	8E
8a	.	.	8F#
=13	=13	=13	=13
8b-	1r	8B-	2G
8a	.	8c	.
8b-	.	8d	.
8g	.	8e	.
4a	.	2f	8D
.	.	.	8E
[4dd	.	.	8F
.	.	.	8G
=14	=14	=14	=14
8dd]	4r	4e	[2A
8cc	.	.	.
8dd	4g#	8f	.
8b	.	8d	.
4cc	4a	8e	8A]
.	.	8A	8F
4cc#	4e	4B-	8G
.	.	.	8E
=15	=15	=15	=15
4dd	4r	4A	8F
.	.	.	8E
4g	4b	4d	8D
.	.	.	8C#
4f	4a	4r	8D
.	.	.	8BB-
4a	4dd	4F#	8C
.	.	.	8AA
=16	=16	=16	=16
4.dd	8g	4G	8BB
.	8a	.	8C#
.	8b	4D	2D
8ee	8cc#	.	.
8ff	8dd	8A	.
8gg	8ee	8G	.
[4aa	[4ff	8F	4FF
.	.	8E	.
=17	=17	=17	=17
4aa]	8ff]	8D	2.GG
.	8ee	8C	.
8bb-	8dd	4.BB-	.
8aa	8cc	.	.
8gg	8b-	.	.
8ff	8a	8C	.
4gg	[4b-	8D	8FF
.	.	8E	8GG
=18	=18	=18	=18
[1cc	4b-]	8F	2.AA
.	.	8G	.
.	8a	2F	.
.	8g	.	.
.	8f	.	.
.	8g	.	.
.	8f	8G	8BB-
.	8e-	8A	8C
=19	=19	=19	=19
8cc]	2.d	[2B-	4D
8f#	.	.	.
8g	.	.	8E
8a	.	.	8F#
[2b-	.	8B-]	8G
.	.	8A	8F
.	8e	8G	8E
.	8f	8F	8D
=20	=20	=20	=20
2b-]	8g	4E	4C
.	8f	.	.
.	8e	8F	8D
.	8d	8G	8E
[2a	4c	4A	8F
.	.	.	8E
.	4f	4d	8D
.	.	.	8C
=21	=21	=21	=21
8a]	[2f	4D	4BB-
4dd	.	.	.
.	.	2r	8B-
8cc#	.	.	8A
[2dd	8f]	.	4B-
.	8f#	.	.
.	8g	4d	4BB-
.	8g#	.	.
=22	=22	=22	=22
4dd]	2a	2e	4AA
4cc#	.	.	8A
.	.	.	8B-
2r	2r	2r	8A
.	.	.	8G
.	.	.	8F
.	.	.	8E
=23	=23	=23	=23
2aa	1r	1r	8F
.	.	.	8E
.	.	.	8F
.	.	.	8G
4.dd	.	.	8F
.	.	.	8E
.	.	.	8D
8ee	.	.	8C#
=24	=24	=24	=24
4.ff	2dd	1r	8D
.	.	.	8DD
.	.	.	8D
8gg	.	.	8E
2aa	4.a	.	8F
.	.	.	8A
.	.	.	8d
.	8b	.	8f
=25	=25	=25	=25
2bb-	4.cc#	1r	8e
.	.	.	8f
.	.	.	8g
.	8dd	.	8e
4.aa	2ee	.	8c#
.	.	.	8d
.	.	.	8e
8gg	.	.	8c#
=26	=26	=26	=26
[2ff	2a	2d	4d
.	.	.	4D
8ff]	2r	4.A	2r
8ee	.	.	.
8ff#	.	.	.
8gg#	.	8B	.
=27	=27	=27	=27
8aa	1r	4.c	1r
16gg	.	.	.
16ff	.	.	.
4.ee	.	.	.
.	.	8d	.
.	.	2e	.
8dd	.	.	.
8cc	.	.	.
8b	.	.	.
=28	=28	=28	=28
8a	1r	2f	1r
8g#	.	.	.
8a	.	.	.
8b	.	.	.
8cc#	.	4.e	.
8dd	.	.	.
8ee	.	.	.
8ff	.	8d	.
=29	=29	=29	=29
8gg	1r	[2c#	1r
8aa	.	.	.
8bb-	.	.	.
8gg	.	.	.
8ee	.	8c#]	.
8aa	.	8A	.
8gg	.	8B	.
8aa	.	8c#	.
=30	=30	=30	=30
8ff	1r	8d	1r
8gg	.	8e	.
8aa	.	4.f	.
8ff	.	.	.
8dd	.	.	.
8gg	.	8e	.
8ff	.	8d	.
8gg	.	8e	.
=31	=31	=31	=31
8ee	1r	8c#	2A
8ff	.	8d	.
8gg	.	4.e	.
8ee	.	.	.
4.ff	.	.	4.D
.	.	8A	.
.	.	[4d	.
8gg	.	.	8E
=32	=32	=32	=32
4.aa	1r	8d]	4.F
.	.	8e	.
.	.	4.f	.
8gg	.	.	8G
8ff	.	.	2A
8ee	.	8g	.
8dd	.	[4a	.
8cc#	.	.	.
=33	=33	=33	=33
[2dd	1r	8a]	2B-
.	.	8g	.
.	.	8f	.
.	.	8e	.
8dd]	.	4f	4.A
8b	.	.	.
4cc#	.	4e	.
.	.	.	8G
=34	=34	=34	=34
8dd	2dd	4A	[2F
8b-	.	.	.
8a	.	8B	.
8g	.	8c#	.
4f	4.a	2d	8F]
.	.	.	8E
[4ff	.	.	8F
.	8b	.	8G
=35	=35	=35	=35
8ff]	4.cc	4.c	[2A
8ee	.	.	.
8ff#	.	.	.
8gg#	8dd	8B	.
[2aa	2ee	[2c	8A]
.	.	.	8G
.	.	.	8F
.	.	.	8E
=36	=36	=36	=36
2aa_	2ff	8c]	2D
.	.	8c	.
.	.	8B-	.
.	.	8A	.
8aa]	4.ee	4.B-	[2G
8aa]	.	.	.
8gg	.	.	.
8ff	8dd	8d	.
=37	=37	=37	=37
4ee	[2cc#	2a	8G]
.	.	.	8G
2aa	.	.	8F
.	.	.	8E
.	8cc#]	2r	[2F
.	8a	.	.
4gg	8b	.	.
.	8cc#	.	.
=38	=38	=38	=38
2ff	[2dd	1r	8F]
.	.	.	8E
.	.	.	8F
.	.	.	8G
[2ee	8dd]	.	[2A
.	8dd	.	.
.	8cc	.	.
.	8b	.	.
=39	=39	=39	=39
4ee]	[2cc	1r	8A]
.	.	.	8B-
8ff#	.	.	8A
8gg	.	.	8G
4aa	8cc]	.	4.F#
.	8cc	.	.
[4dd	8b-	.	.
.	8a	.	16E
.	.	.	16F#
=40	=40	=40	=40
4dd]	[2b-	1r	8G
.	.	.	8A
8ee	.	.	8G
8ff	.	.	8F
4gg	8b-]	.	4.E
.	8b-	.	.
[4cc	8a	.	.
.	8g	.	16D
.	.	.	16E
=41	=41	=41	=41
8cc]	[2a	1r	4F
8b	.	.	.
8cc#	.	.	8E
8dd	.	.	8D
4ee	8a]	.	4.C#
.	8g	.	.
[4a	8f	.	.
.	8e	.	16BB
.	.	.	16C#
=42	=42	=42	=42
8a]	2.f	1r	[2D
8a	.	.	.
8dd	.	.	.
8cc#	.	.	.
[2dd	.	.	8D]
.	.	.	8FF
.	4f	.	8BB-
.	.	.	8AA
=43	=43	=43	=43
4dd]	2.e	1r	8GG
.	.	.	8AA
4dd	.	.	8BB-
.	.	.	8GG
2cc#	.	.	8EE
.	.	.	8AA
.	4e	.	8GG
.	.	.	8AA
=44	=44	=44	=44
8dd	2a	4r	8FF
8b-	.	.	8GG
4.cc	.	4F#	8AA
.	.	.	8FF#
.	4.d	4G	4BB-
8a	.	.	.
[4b-	.	4D	4GG
.	8e	.	.
=45	=45	=45	=45
8b-]	4.f	4r	4.D
8a	.	.	.
4.dd	.	4B-	.
.	8g	.	8E
.	2a	4A	4.F
8cc#	.	.	.
[4dd	.	4d	.
.	.	.	8F#
=46	=46	=46	=46
8dd]	2b-	8G	2G
8cc#	.	8A	.
8dd	.	8B-	.
8ee	.	8c	.
4.ff	4.a	8d	8F
.	.	8e	8G
.	.	[4f	4A
8ee	8g	.	.
=47	=47	=47	=47
[2dd	[2f	8f]	4B-
.	.	8e	.
.	.	8d	2A
.	.	8c	.
8dd]	8f]	2B-	.
8cc#	8e	.	.
8dd	8f	.	[4G
8ee	8g	.	.
=48	=48	=48	=48
4cc#	4a	2.A	8G]
.	.	.	8G
2.r	4.dd	.	8F
.	.	.	8E
.	.	.	[2F
.	8cc	.	.
.	8b-	8d	.
.	8a	8c	.
=49	=49	=49	=49
1r	4g	8B-	4F]
.	.	8A	.
.	4.cc	2G	8E
.	.	.	8D
.	.	.	[2E
.	8b-	.	.
.	8a	8c	.
.	8g	8B-	.
=50	=50	=50	=50
4r	4f	8A	4E]
.	.	8G	.
8dd	2b-	4.F	8D
8ee	.	.	8C#
8ff	.	.	[2D
8gg	.	8E	.
8aa	4a	4F	.
8ff	.	.	.
=51	=51	=51	=51
8gg	4ee	4B-	2D]
8aa	.	.	.
8bb-	2.r	4E	.
8gg	.	.	.
8ee	.	[2A	2C#
8aa	.	.	.
8gg	.	.	.
8aa	.	.	.
=52	=52	=52	=52
8ff	4r	8A]	2D
8ee	.	8G	.
4.dd	4d	8F	.
.	.	8G	.
.	4f	4A	4.AA
8b	.	.	.
8cc	4c	4E	.
8dd	.	.	8BB
=53	=53	=53	=53
8ee	4r	4.A	4.C
8dd	.	.	.
4.cc	4a	.	.
.	.	8B	8D
.	4g	8c	2E
8b	.	8d	.
[4ee	4cc	8c	.
.	.	8B	.
=54	=54	=54	=54
4ee]	8f	2.A	2F
.	8g	.	.
4dd	8a	.	.
.	8b	.	.
4cc	8cc	.	4.E
.	8dd	.	.
4b	[4ee	4G#	.
.	.	.	8D
=55	=55	=55	=55
2a	8ee]	4A	[2C
.	8dd	.	.
.	8cc	4E	.
.	8b	.	.
2r	[2a	4e	8C]
.	.	.	8BB
.	.	8d	8C
.	.	8c	8D
=56	=56	=56	=56
1r	8a]	4B	8E
.	8f#	.	8D#
.	4g#	8E	4E
.	.	8F#	.
.	2r	8G#	4r
.	.	8A	.
.	.	8B	4E
.	.	8c	.
=57	=57	=57	=57
1r	1r	8d	8F#
.	.	8e	8G#
.	.	8f	2A
.	.	8d	.
.	.	8B	.
.	.	8e	.
.	.	8d	8G#
.	.	8e	8F#
=58	=58	=58	=58
4r	1r	8c#	4G
.	.	8A	.
8a	.	4d	4F
8b	.	.	.
8cc#	.	4G	4E
8dd	.	.	.
8ee	.	4B-	4D
8ff	.	.	.
=59	=59	=59	=59
8gg	1r	4E	4C#
8aa	.	.	.
8bb-	.	2D	8D
8gg	.	.	8BB-
8ee	.	.	4GG
8aa	.	.	.
8gg	.	4C#	4AA
8aa	.	.	.
=60	=60	=60	=60
8ff	4r	4D	4DD
8gg	.	.	.
8ff	8d	2.r	2.r
8ee	8e	.	.
8dd	8f	.	.
8ee	8g	.	.
8ff	8a	.	.
8dd	8b	.	.
=61	=61	=61	=61
8ee	8cc	1r	1r
8ff#	8dd	.	.
2gg	8ee-	.	.
.	8cc	.	.
.	8a	.	.
.	8dd	.	.
4ff#	8cc	.	.
.	8dd	.	.
=62	=62	=62	=62
4gg	8b-	1r	4r
.	8cc	.	.
4dd	8b-	.	8GG
.	8a	.	8AA
[2gg	8g	.	8BB-
.	8a	.	8C
.	8b-	.	8D
.	8g	.	8E
=63	=63	=63	=63
4gg]	8a	1r	8F
.	8b	.	8G
8ff	2cc	.	8A
8ee	.	.	8F
4ff	.	.	8D
.	.	.	8G
4dd	[4b-	.	8F
.	.	.	8G
=64	=64	=64	=64
2.cc	4b-]	1r	8E
.	.	.	8F
.	4e	.	8G
.	.	.	8E
.	[2a	.	8C
.	.	.	8F
4cc	.	.	8E
.	.	.	8F
=65	=65	=65	=65
[2ff	4a]	1r	8D
.	.	.	8E
.	4dd	.	8F
.	.	.	8D
8ff]	[2g	.	8BB
8gg	.	.	8E
8ff	.	.	8D
8gg	.	.	8E
=66	=66	=66	=66
4ee	8g]	2A	2C#
.	8g	.	.
4a	8f	.	.
.	8e	.	.
4b-	8f	4.D	[2D
.	8e	.	.
4f	8d	.	.
.	8c#	8E	.
=67	=67	=67	=67
4r	8d	4.F	4D]
.	8e	.	.
4dd	4.f	.	4BB-
.	.	8G	.
4cc	.	2A	4.F
.	8e	.	.
4ff	[4d	.	.
.	.	.	8D
=68	=68	=68	=68
8b-	4d]	2B-	4.G
8cc	.	.	.
8dd	8dd	.	.
8ee	8cc#	.	8G
8ff	8dd	4.A	4.F
8gg	8ee	.	.
[4aa	[4ff	.	.
.	.	8G	8E
=69	=69	=69	=69
8aa]	4ff]	[2F	4.D
8gg	.	.	.
8ff	4a	.	.
8ee	.	.	8C
2dd	4b-	8F]	2BB-
.	.	8E	.
.	8d	8F	.
.	8e	8G	.
=70	=70	=70	=70
[2cc	8f	8A	2F
.	8e	8c	.
.	8f	8d	.
.	8g	8e	.
8cc]	4.a	4.f	2r
8cc	.	.	.
8dd	.	.	.
8ee	8g	8e	.
=71	=71	=71	=71
[2ff	8f	4.d	2r
.	8a	.	.
.	8b-	.	.
.	8cc	8c	.
8ff]	[2dd	4.B-	8r
8ff#	.	.	8D
8gg	.	.	8E
8aa	.	8A	8F#
=72	=72	=72	=72
2bb-	4.dd]	8G	2G
.	.	8d	.
.	.	8e	.
.	8cc	8f#	.
8r	4.b-	4.g	2r
8dd	.	.	.
8ee	.	.	.
8ff	8a	8f	.
=73	=73	=73	=73
[2gg	8g	4.e	2r
.	8b	.	.
.	8cc	.	.
.	8dd	8d	.
8gg]	[2ee	4.c	8r
8gg#	.	.	8E
8aa	.	.	8F#
8bb	.	8B	8G#
=74	=74	=74	=74
2ccc	4.ee]	8A	2A
.	.	8e	.
.	.	8f#	.
.	8dd	8g#	.
8r	4.cc	4.a	2r
8ee	.	.	.
8ff	.	.	.
8gg	8b-	8g	.
=75	=75	=75	=75
2aa	2cc	8f	4r
.	.	8e	.
.	.	8f	4A
.	.	8c	.
4.dd	4.f	8d	4B-
.	.	8c	.
.	.	8d	4F
8ee	8g	8B-	.
=76	=76	=76	=76
4.ff	4.a	8A	4r
.	.	8G	.
.	.	4.F	4D
8gg	8b-	.	.
2aa	2cc	.	4C
.	.	8E	.
.	.	8F	4F
.	.	[8A	.
=77	=77	=77	=77
2bb-	2dd	8A]	8BB-
.	.	8G	8C
.	.	8F	8D
.	.	8G	8E
4.aa	4.cc	4.A	8F
.	.	.	8G
.	.	.	[4A
8gg	8b-	8B-	.
=78	=78	=78	=78
[2ff	[2a	2.c	8A]
.	.	.	8G
.	.	.	8F
.	.	.	8E
8ff]	8a]	.	2D
8ee	8g	.	.
8ff	8a	[4F	.
8gg	8b-	.	.
=79	=79	=79	=79
8aa	2cc	8F]	2C
8ff	.	8D	.
4.gg	.	8E	.
.	.	8G	.
.	2r	4.c	2r
8dd	.	.	.
8ee	.	.	.
8gg	.	8B-	.
=80	=80	=80	=80
2cc	8r	[2A	1r
.	8e	.	.
.	8f	.	.
.	8a	.	.
[2b-	4d	8A]	.
.	.	8F	.
.	4e	8G	.
.	.	8c	.
=81	=81	=81	=81
8b-]	4.f	2F	1r
8g	.	.	.
8a	.	.	.
8cc	8e	.	.
[2ff	8d	4r	.
.	8A	.	.
.	8B-	[4B-	.
.	8d	.	.
=82	=82	=82	=82
4ff]	[2g	8B-]	1r
.	.	8D	.
4b	.	8E	.
.	.	8G	.
[2ee	8g]	4.C#	.
.	8b-	.	.
.	8a	.	.
.	8e	8C#	.
=83	=83	=83	=83
4ee]	2f	8D	1r
.	.	8E	.
4dd	.	8F	.
.	.	8A	.
8r	2r	4.d	.
8ee	.	.	.
8ff	.	.	.
8aa	.	8c	.
=84	=84	=84	=84
2dd	8r	[2B-	1r
.	8f#	.	.
.	8g	.	.
.	8b-	.	.
[2cc	4e	8B-]	.
.	.	8G	.
.	4f#	8A	.
.	.	8d	.
=85	=85	=85	=85
8cc]	8g	4G	2G
8a	8f#	.	.
8b	4g	8d	.
8cc#	.	8e	.
4dd	4b-	8f	4.D
.	.	8e	.
4a	4f	8d	.
.	.	8c#	8E
=86	=86	=86	=86
4r	4r	8d	4.F
.	.	8A	.
4ff	4dd	4.a	.
.	.	.	8G
4ee	4cc	.	2A
.	.	8e	.
4aa	4ff	8d	.
.	.	8c#	.
=87	=87	=87	=87
8dd	8b-	4g	2B-
8ee	8cc	.	.
8ff	8dd	4d	.
8gg	8ee	.	.
8aa	8ff	8r	4.A
8bb-	8gg	8d	.
[4ccc	[4aa	8c	.
.	.	8B-	8G
=88	=88	=88	=88
8ccc]	8aa]	4.A	[2F
8bb-	8gg	.	.
8aa	8ff	.	.
8gg	8ee	8c#	.
2ff	2dd	4.d	8F]
.	.	.	8E
.	.	.	8F
.	.	8A	8G
=89	=89	=89	=89
2ee	2cc#	8a	2A
.	.	8e	.
.	.	8d	.
.	.	8e	.
2r	2r	4f	8r
.	.	.	8A
.	.	4c#	8G
.	.	.	8A
=90	=90	=90	=90
2r	8r	4d	4B-
.	8g	.	.
.	8a	4A	4F#
.	8g	.	.
8r	4f#	4c	4A
8cc	.	.	.
8dd	4a	4F#	4D
8cc	.	.	.
=91	=91	=91	=91
2b-	8r	4G	4E-
.	8g	.	.
.	8f	4c	4E
.	8g	.	.
2r	4a	8r	4F
.	.	8c	.
.	4e	8B-	4r
.	.	8c	.
=92	=92	=92	=92
8r	4f	4d	2r
8ff	.	.	.
8gg	4cc	4A	.
8ff	.	.	.
4ee	4g	4c	8r
.	.	.	8E
4aa	4ee	4c#	8F
.	.	.	8E
=93	=93	=93	=93
8ff	4a	4d	4D
8aa	.	.	.
8bb-	4.r	4c	2F
8aa	.	.	.
4gg	.	4B-	.
.	8dd	.	.
4ccc	8ee-	4G	[4E-
.	8dd	.	.
=94	=94	=94	=94
4ff	4cc	8A	4E-]
.	.	8c	.
4bb-	4ff	8B-	4D
.	.	8c	.
4r	4b-	4d	8r
.	.	.	8F
[4ff	4cc	4A	8E-
.	.	.	8F
=95	=95	=95	=95
4ff]	8r	4B-	4G
.	8g	.	.
2ee-	8a	4.c	4C
.	8g	.	.
.	4f	.	2D
.	.	8A	.
[4dd	4b-	8B-	.
.	.	8A	.
=96	=96	=96	=96
4dd]	8r	4G	4E-
.	8e-	.	.
2cc	8f	4c	4AA
.	8e-	.	.
.	4d	8r	2BB-
.	.	8F	.
[4b-	4g	8G	.
.	.	8F	.
=97	=97	=97	=97
4b-]	8r	4E-	4C
.	8c	.	.
4.a	8d	4A	4FF#
.	8c	.	.
.	4B-	8r	2GG
8g	.	8D	.
[4gg	[4b-	8E-	.
.	.	8C#	.
=98	=98	=98	=98
8gg]	8b-]	4D	2DD
8ee	8g	.	.
4ff#	4.a	4r	.
[2ff	.	4.d	2r
.	8g	.	.
.	8f	.	.
.	8e-	8c	.
=99	=99	=99	=99
4ff]	4d	8B	1r
.	.	8A	.
8ee-	4.g	4G	.
8dd	.	.	.
[2ee-	.	4.c	.
.	8f	.	.
.	8e-	.	.
.	8d	8B-	.
=100	=100	=100	=100
4ee-]	4c	8A	1r
.	.	8G	.
8dd	4.f	4F	.
8cc	.	.	.
8dd	.	4.B-	.
8ee-	8e-	.	.
[4ff	8d	.	.
.	8c	8A	.
=101	=101	=101	=101
8ff]	4.B-	1G	1r
8dd	.	.	.
8ee	.	.	.
8ff	8A	.	.
4gg	8B-	.	.
.	8c	.	.
[4b-	8d	.	.
.	8e	.	.
=102	=102	=102	=102
8b-]	4f	4.F	1r
8g	.	.	.
8a	4c	.	.
8b-	.	8G	.
8cc	2r	8A	.
8dd	.	8B-	.
8ee-	.	8c	.
8cc	.	8A	.
=103	=103	=103	=103
4dd	8r	4B-	4r
.	8cc	.	.
4ff	8b-	4F	4D
.	8a	.	.
4.b-	8g	4G	4E-
.	8f#	.	.
.	8g	4D	4BB-
8cc	8a	.	.
=104	=104	=104	=104
4.dd	8b-	4r	4r
.	8a	.	.
.	8b-	4B-	4G
8ee	8g	.	.
2ff	8cc	4A	4F
.	8ee-	.	.
.	8dd	4d	4B-
.	8cc	.	.
=105	=105	=105	=105
2gg	4b-	8G	8E-
.	.	8A	8F
.	4ee-	8B-	8G
.	.	8c	8A
4.ff	8r	8d	8B-
.	8ee-	8e-	8c
.	8dd	[4f	[4d
8ee-	8cc	.	.
=106	=106	=106	=106
[2dd	8b-	8f]	8d]
.	8a	8e-	8c
.	8g	8d	8B-
.	8a	8c	8A
8dd]	8b-	2B-	2G
8cc	8a	.	.
8dd	8b-	.	.
8ee	8g	.	.
=107	=107	=107	=107
4ff	4cc	4A	2F
8f	2r	4f	.
8g	.	.	.
8a	.	4e-	2r
8b-	.	.	.
8cc	4f	4d	.
8dd	.	.	.
=108	=108	=108	=108
8ee-	8g	2c	1r
8ff	8a	.	.
8gg	2b-	.	.
8ee-	.	.	.
8cc	.	2f	.
8ff	.	.	.
8ee-	[4a	.	.
8ff	.	.	.
=109	=109	=109	=109
8dd	4a]	8B-	1r
8ee-	.	8c	.
8ff	4d	8d	.
8dd	.	8B-	.
8b-	8r	8e-	.
8g	8g	8d	.
[4gg	8a	8c	.
.	8b-	8B-	.
=110	=110	=110	=110
4gg]	8cc	8A	1r
.	8dd	8B-	.
2gg	8ee-	8c	.
.	8cc	8A	.
.	8a	4d	.
.	8dd	.	.
4ff#	8cc	4D	.
.	8dd	.	.
=111	=111	=111	=111
8gg	2b-	4G	1r
8ff	.	.	.
8ee-	.	4.g	.
8dd	.	.	.
4cc#	4a	.	.
.	.	8f	.
4dd	[4b-	8e	.
.	.	8d	.
=112	=112	=112	=112
[2ee	8b-]	8c#	1r
.	8a	8d	.
.	8g	8e	.
.	8a	8c#	.
8ee]	[2f	8d	.
8a	.	8c	.
8dd	.	8B-	.
8cc	.	8A	.
=113	=113	=113	=113
[1b-	8f]	8G	1r
.	8a	8D	.
.	8g	8E	.
.	8f	8F	.
.	4e	8G	.
.	.	8A	.
.	4d	8B-	.
.	.	8G	.
=114	=114	=114	=114
8b-]	8c#	1A	1r
8b-	8d	.	.
8a	4.e	.	.
8g	.	.	.
4.f	.	.	.
.	8e	.	.
.	[4d	.	.
8f	.	.	.
=115	=115	=115	=115
8e	4d]	4r	2A
4a	.	.	.
.	4c#	4A	.
8g	.	.	.
8f	4d	4B-	4.D
8e	.	.	.
8f	4A	4F	.
8g	.	.	8E
=116	=116	=116	=116
8a	4r	4r	4.F
8g	.	.	.
8a	4f	4d	.
8b-	.	.	8G
8cc	4e	4c	2A
8dd	.	.	.
8ee-	4a	4f	.
8cc	.	.	.
=117	=117	=117	=117
2dd	8d	8B-	2B-
.	8e	8c	.
.	8f	8d	.
.	8g	8e	.
4cc	8a	8f	4.A
.	8b-	8g	.
8ff	[4cc	[4a	.
8ee	.	.	8G
=118	=118	=118	=118
4.ff	8cc]	8a]	[2F
.	8b-	8g	.
.	8a	8f	.
8cc#	8g	8e	.
[2dd	8f	4.d	8F]
.	8g	.	8E
.	[4a	.	8F
.	.	8e	8G
=119	=119	=119	=119
2.dd]	1a_	4f	1A
.	.	8e	.
.	.	8d	.
.	.	8e	.
.	.	8f	.
4cc#	.	[4g	.
=120	=120	=120	=120
2dd	2a]	4g]	2D
.	.	4f#	.
2r	2r	2r	2r
*-	*-	*-	*-
!!!RWG1: This file contains only pitch and duration data.
!!!RWG2: Transposing instruments are not transposed.
!!!RWG3: Spines may have incompatible meters.
!!!RWG4: Durations of rests and tied notes may be interpreted.
!!!RWG: Key is interpreted using the Humdrum key tool.
!!!AFT: stage1
!!!END: 1997/04/15/
!!format changes:
!!content changes:
!!public access: complete
!!!KEY: 1410381876
!!!EMD: Converted from MuseData to Humdrum Dec 19, 2000, by Andreas Kornstaedt using muse2kern.
